app/assets/images/remix_icon/user/user-follow-fill.svg

<svg viewBox="0 0 24 24" xmlns="http://www.w3.org/2000/svg"><path d="M13 14.0619V22H4C4 17.5817 7.58172 14 12 14C12.3387 14 12.6724 14.021 13 14.0619ZM12 13C8.685 13 6 10.315 6 7C6 3.685 8.685 1 12 1C15.315 1 18 3.685 18 7C18 10.315 15.315 13 12 13ZM17.7929 19.9142L21.3284 16.3787L22.7426 17.7929L17.7929 22.7426L14.2574 19.2071L15.6716 17.7929L17.7929 19.9142Z"/></svg>

<svg xmlns="http://www.w3.org/2000/svg" viewBox="0 0 24 24">
    <g>
        <path fill="none" d="M0 0h24v24H0z"/>
        <path d="M13 14.062V22H4a8 8 0 0 1 9-7.938zM12 13c-3.315 0-6-2.685-6-6s2.685-6 6-6 6 2.685 6 6-2.685 6-6 6zm5.793 6.914l3.535-3.535 1.415 1.414-4.95 4.95-3.536-3.536 1.415-1.414 2.12 2.121z"/>
    </g>
</svg>
